vendor/shopware/storefront/Resources/app/storefront/dist/assets/icon/default/editor-expand.svg

<svg xmlns="http://www.w3.org/2000/svg" width="12" height="12" viewBox="0 0 12 12">
  <path fill="#758CA3" fill-rule="evenodd" d="M3.41421356,10 L5,10 C5.55228475,10 6,10.4477153 6,11 C6,11.5522847 5.55228475,12 5,12 L1,12 C0.44771525,12 3.61845253e-16,11.5522847 2.6039219e-16,11 L-4.7439589e-16,7 C-5.75848952e-16,6.44771525 0.44771525,6 1,6 C1.55228475,6 2,6.44771525 2,7 L2,8.58578644 L3.79289322,6.79289322 C4.18341751,6.40236893 4.81658249,6.40236893 5.20710678,6.79289322 C5.59763107,7.18341751 5.59763107,7.81658249 5.20710678,8.20710678 L3.41421356,10 Z M8.58578644,2 L7,2 C6.44771525,2 6,1.55228475 6,1 C6,0.44771525 6.44771525,1.56282367e-16 7,1.2246468e-16 L11,-1.2246468e-16 C11.5522847,-1.56282367e-16 12,0.44771525 12,1 L12,5 C12,5.55228475 11.5522847,6 11,6 C10.4477153,6 10,5.55228475 10,5 L10,3.41421356 L8.20710678,5.20710678 C7.81658249,5.59763107 7.18341751,5.59763107 6.79289322,5.20710678 C6.40236893,4.81658249 6.40236893,4.18341751 6.79289322,3.79289322 L8.58578644,2 Z"/>
</svg>

<svg xmlns="http://www.w3.org/2000/svg" width="12" height="12" viewBox="0 0 12 12"><path fill="#758CA3" fill-rule="evenodd" d="M3.4142 10H5c.5523 0 1 .4477 1 1s-.4477 1-1 1H1c-.5523 0-1-.4477-1-1V7c0-.5523.4477-1 1-1s1 .4477 1 1v1.5858l1.7929-1.793c.3905-.3904 1.0237-.3904 1.4142 0 .3905.3906.3905 1.0238 0 1.4143L3.4142 10zm5.1716-8H7c-.5523 0-1-.4477-1-1s.4477-1 1-1h4c.5523 0 1 .4477 1 1v4c0 .5523-.4477 1-1 1s-1-.4477-1-1V3.4142l-1.7929 1.793c-.3905.3904-1.0237.3904-1.4142 0-.3905-.3906-.3905-1.0238 0-1.4143L8.5858 2z"/></svg>
